X:11854
T:No name
M:C|
L:1/8
Q:120
R:reel
K:Em
|:BE3BF3|BG3BABc|ABAGBAGF|AGEFDEDB|
DE3BF3|BG3BABc|ABAGBAGF|1 AGEFDE3:|2 AGEFDE||
GABc3dc|BAcB3cB|AGBA3BA|GFAGEFDE|
GABc3dc|BAcB3cB|AGBA3BA|GFAGEFDE:|
